X: 626
T: Edremit Güvendesi
C: (Anonim)
O: Turkey
F: http://compmusic.upf.edu/node/140
N: karcigar--guvende--nimdevir--edremit--
N: makam= karcigar
N: form= guvende
N: usul= nimdevir = 18/4
M: 18/4
L: 1/16
K: C _2/4B _3/4e ^3/4f 
Q: 1/4=48
%%MIDI tuningsystem comma53
d2 ef e3/2d/ c2 d3/2e/ fg a4 _b3/2a/ gf e3/2d/ c2 B3/2A/ BG A4 z2 gf  | 
w:   | 
e3/2d/ c2 B3/2A/ BG A4 G2 (3cBA B2 c2 d2 ef e3/2d/ c2 d8  | 
w:   | 
d3/2e/ fg fe dc d3/2e/ fg a4 _b3/2a/ gf e3/2d/ c2 BA BG A4 z2 gf  | 
w:   | 
e3/2d/ c2 B3/2A/ BG A4 GA3 A2 =f2 =e2 d2 c2 B2 A2 {B}AG A4  | \
w:   | 
z2 fg a2 a2 a3/2g/ a2 c'4 _bc' ba g2 a2 f4 e3/2d/ c2 d4  | 
w:   | 
d4 z8 z2 d=e =f2 g2 e2 d2 e2 c2 B3/2A/ BG A4  | \
w:   | 
z2 d=e e2 _1/4e2 _2/4e2 _3/4e2 _7/8e2 d2 d3/2_3/4e/ fg fe dc BA BG A4 z2 gf  | 
w:   | 
e3/2d/ c2 B3/2A/ BG A4 G2 (3cBA B2 c2 de fg fe dc d8  | 
w:   | 
f3/2=e/ fa g3/2f/ ge d3/2c/ d=f e3/2d/ ec d2 g^3/4f _3/4e3/2d/ c2 B3/2A/ BG A4 z2 gf  | 
w:   | 
e3/2d/ c2 B3/2A/ BG A4 GA3 A2 =f2 =e2 d2 c2 B2 A2 {B}AG A4  | \
w:   | 
z2 fg a2 a2 a3/2g/ a2 c'4 _bc' ba g2 a2 f4 e3/2d/ c2 d4  | 
w:   | 
d4 z8 z2 d=e =f2 g2 e2 d2 e2 c2 B3/2A/ BG A4  | \
w:   | 
z2 d=e e2 _1/4e2 _2/4e2 _3/4e2 _7/8e2 d2 d3/2_3/4e/ fg fe dc BA BG A4 z2 gf  | 
w:   | 
e3/2d/ c2 B3/2A/ BG A4 G2 (3cBA B2 c2 de fg fe dc d8  | 
w:   | 
f3/2=e/ fa g3/2f/ ge d3/2c/ d=f e3/2d/ ec d2 g^3/4f _3/4e3/2d/ c2 B3/2A/ BG A4 z2 gf  | 
w:   | 
e3/2d/ c2 B3/2A/ BG A4 GA3 A2 =f2 =e2 d2 c2 B2 A2 {B}AG A4  | |


